twotone/svg/remove_red_eye.svg

<svg xmlns="http://www.w3.org/2000/svg" width="24" height="24"><path fill="none" d="M0 0h24v24H0V0z"/><g fill="currentColor"><path opacity=".3" d="M12 6.5A9.77 9.77 0 0 0 3.18 12c1.65 3.37 5.02 5.5 8.82 5.5s7.17-2.13 8.82-5.5A9.77 9.77 0 0 0 12 6.5zm0 10c-2.48 0-4.5-2.02-4.5-4.5S9.52 7.5 12 7.5s4.5 2.02 4.5 4.5-2.02 4.5-4.5 4.5z"/><path d="M12 4.5C7 4.5 2.73 7.61 1 12c1.73 4.39 6 7.5 11 7.5s9.27-3.11 11-7.5c-1.73-4.39-6-7.5-11-7.5zm0 13A9.77 9.77 0 0 1 3.18 12C4.83 8.63 8.21 6.5 12 6.5s7.17 2.13 8.82 5.5A9.77 9.77 0 0 1 12 17.5z"/><path d="M12 7.5c-2.48 0-4.5 2.02-4.5 4.5s2.02 4.5 4.5 4.5 4.5-2.02 4.5-4.5-2.02-4.5-4.5-4.5zm0 7a2.5 2.5 0 0 1 0-5 2.5 2.5 0 0 1 0 5z"/></g></svg>

<?xml version="1.0" encoding="utf-8"?>
<!-- Generator: Adobe Illustrator 19.1.0, SVG Export Plug-In . SVG Version: 6.00 Build 0)  -->
<svg version="1.1" xmlns="http://www.w3.org/2000/svg" xmlns:xlink="http://www.w3.org/1999/xlink" x="0px" y="0px" width="24px"
	 height="24px" viewBox="0 0 24 24" enable-background="new 0 0 24 24" xml:space="preserve">
<g id="Bounding_Boxes">
	<g id="ui_x5F_spec_x5F_header_copy_2">
	</g>
	<path fill="none" d="M0,0h24v24H0V0z"/>
</g>
<g id="Duotone" fill="currentColor">
	<g id="ui_x5F_spec_x5F_header_copy_3">
	</g>
	<g>
		<path opacity="0.3" d="M12,6.5c-3.79,0-7.17,2.13-8.82,5.5c1.65,3.37,5.02,5.5,8.82,5.5s7.17-2.13,8.82-5.5
			C19.17,8.63,15.79,6.5,12,6.5z M12,16.5c-2.48,0-4.5-2.02-4.5-4.5S9.52,7.5,12,7.5s4.5,2.02,4.5,4.5S14.48,16.5,12,16.5z"/>
		<path d="M12,4.5C7,4.5,2.73,7.61,1,12c1.73,4.39,6,7.5,11,7.5s9.27-3.11,11-7.5C21.27,7.61,17,4.5,12,4.5z M12,17.5
			c-3.79,0-7.17-2.13-8.82-5.5C4.83,8.63,8.21,6.5,12,6.5s7.17,2.13,8.82,5.5C19.17,15.37,15.79,17.5,12,17.5z"/>
		<path d="M12,7.5c-2.48,0-4.5,2.02-4.5,4.5s2.02,4.5,4.5,4.5s4.5-2.02,4.5-4.5S14.48,7.5,12,7.5z M12,14.5
			c-1.38,0-2.5-1.12-2.5-2.5s1.12-2.5,2.5-2.5s2.5,1.12,2.5,2.5S13.38,14.5,12,14.5z"/>
	</g>
</g>
</svg>
